!!!!SEGMENT: Ver2019-Congregati_sunt.krn
!!!id: Ver2019
!!!AGN: Motet
!!!voices: 6
!!!COM: Philippe Verdelot
!!!OTL: Congregati sunt
**kern	**kern	**kern	**kern	**kern	**kern
*part6	*part5	*part4	*part3	*part2	*part1
*staff6	*staff5	*staff4	*staff3	*staff2	*staff1
*I"Bassus II	*I"Bassus I	*I"Tenor II	*I"Tenor I	*I"Altus	*I"Superius
*I'B. II	*I'B. I	*I'T. II	*I'T. I	*I'A	*I'S
*clefF4	*clefF4	*clefGv2	*clefGv2	*clefGv2	*clefG2
*k[b-]	*k[b-]	*k[b-]	*k[b-]	*k[b-]	*k[b-]
*F:	*F:	*F:	*F:	*F:	*F:
*M2/1	*M2/1	*M2/1	*M2/1	*M2/1	*M2/1
*met(C|)	*met(C|)	*met(C|)	*met(C|)	*met(C|)	*met(C|)
!!section: Prima pars: Congregati sunt
!!!OMD: Prima pars: Congregati sunt
0r	0r	0r	0r	0r	1.g
.	.	.	.	.	2a
=1	=1	=1	=1	=1	=1
0r	0r	0r	0r	0r	1b-y
.	.	.	.	.	1g
=2	=2	=2	=2	=2	=2
0r	0r	0r	0r	1.d	1dd
.	.	.	.	.	2r
.	.	.	.	2e	2cc
=3	=3	=3	=3	=3	=3
0r	0r	0r	0r	1f	2dd
.	.	.	.	.	1ff
.	.	.	.	1d	.
.	.	.	.	.	4ee
.	.	.	.	.	4dd
=4	=4	=4	=4	=4	=4
0r	0r	0r	0r	1a	4cc
.	.	.	.	.	4dd
.	.	.	.	.	4ee
.	.	.	.	.	4cc
.	.	.	.	2r	4dd
.	.	.	.	.	4ee
.	.	.	.	2f	2ff
=5	=5	=5	=5	=5	=5
0r	0r	0r	1.G	2g	2ee
.	.	.	.	1b-y	2dd
.	.	.	.	.	2r
.	.	.	2A	4a	2cc
.	.	.	.	4g	.
=6	=6	=6	=6	=6	=6
0r	0r	0r	1B-y	2.f	2dd
.	.	.	.	.	2ff
.	.	.	.	8gL	.
.	.	.	.	8fJ	.
.	.	.	1G	4g	2ee
.	.	.	.	4a	.
.	.	.	.	[2b-y	[2dd
=7	=7	=7	=7	=7	=7
0r	1.D	0r	1d	4b-]	4dd]
.	.	.	.	4a	4cc
.	.	.	.	1a	4b-y
.	.	.	.	.	4a
.	.	.	1r	.	1b-y
.	2E	.	.	2g	.
=8	=8	=8	=8	=8	=8
0r	1F	0r	2r	2a	[0a
.	.	.	2c	1f	.
.	1D	.	2d	.	.
.	.	.	[2f	2d	.
=9	=9	=9	=9	=9	=9
1.D	1A	0r	4f]	1.f	1a]
.	.	.	4e	.	.
.	.	.	1d	.	.
.	2r	.	.	.	1r
2E	2G	.	[2c	4e	.
.	.	.	.	4d	.
=10	=10	=10	=10	=10	=10
1F	2A	0r	4c]	1c	2r
.	.	.	4B-y	.	.
.	2c	.	4A	.	2.f
.	.	.	4G	.	.
1D	2B-y	.	2F	1d	.
.	.	.	.	.	4g
.	[2A	.	2f	.	4a
.	.	.	.	.	4b-y
=11	=11	=11	=11	=11	=11
1A	4A]	0r	2e	1c	2cc
.	4G	.	.	.	.
.	4F	.	2.f	.	1a
.	4E	.	.	.	.
2r	1D	.	.	1d	.
.	.	.	4e	.	.
2F	.	.	4d	.	[2b-y
.	.	.	4c	.	.
=12	=12	=12	=12	=12	=12
2G	1E-X	0r	1B-y	0r	2b-]
2.B-y	.	.	.	.	4a
.	.	.	.	.	4g
.	1D	.	2r	.	1f
4A	.	.	.	.	.
2F	.	.	2A	.	.
=13	=13	=13	=13	=13	=13
2G	0r	0r	2B-y	2r	1r
1B-y	.	.	1d	2f	.
.	.	.	.	2g	2r
2A	.	.	2c	2a	2cc
=14	=14	=14	=14	=14	=14
2.G	1r	0r	2.B-y	1b-y	2dd
.	.	.	.	.	2ee
4F	.	.	8AL	.	.
.	.	.	8GJ	.	.
1D	2r	.	1d	2a	1ff
.	2F	.	.	2f	.
=15	=15	=15	=15	=15	=15
1r	2G	0r	2r	2b-y	2dd
.	2A	.	2c	2a	2.ff
2r	1B-y	.	2d	1f	.
.	.	.	.	.	4ee
2BB-y	.	.	2f	.	2dd
=16	=16	=16	=16	=16	=16
2C	2G	0r	2e	0r	2cc
2D	2F	.	2.d	.	1b-y
1E-i	2.G	.	.	.	.
.	.	.	8cL	.	.
.	.	.	8B-yJ	.	.
.	.	.	2c	.	4a
.	4A	.	.	.	4g
=17	=17	=17	=17	=17	=17
0D	2B-y	0r	1d	2r	0f
.	2A	.	.	2.a	.
.	2r	.	[1d	.	.
.	.	.	.	4g	.
.	[2B-y	.	.	4f	.
.	.	.	.	4e	.
=18	=18	=18	=18	=18	=18
0r	2B-]	0r	2d]	2d	2r
.	2A	.	2c	2.e	2cc
.	2G	.	2B-y	.	1dd
.	.	.	.	4d	.
.	2F	.	2A	[2d	.
=19	=19	=19	=19	=19	=19
1r	1E	0r	1G	4d]	1ee
.	.	.	.	4c	.
.	.	.	.	2g	.
2r	1D	.	1d	1f	2.ff
[2B-y	.	.	.	.	.
.	.	.	.	.	4ee
=20	=20	=20	=20	=20	=20
2B-]	0r	0r	2G	2B-y	2dd
2A	.	.	2A	2c	2cc
2G	.	.	2B-y	4d	2b-y
.	.	.	.	4e	.
2F	.	.	[2c	2f	[2a
=21	=21	=21	=21	=21	=21
1E	0r	0r	4c]	2g	4a]
.	.	.	4B-y	.	4g
.	.	.	4A	2c	1g
.	.	.	4G	.	.
1D	.	.	1A	1d	.
.	.	.	.	.	2f#i
=22	=22	=22	=22	=22	=22
0GG	0r	[0G	[0B-y	1d	1g
.	.	.	.	1g	1dd
=23	=23	=23	=23	=23	=23
0r	0r	0G]	0B-]	1b-y	1dd
.	.	.	.	1b-y	1ee
=24	=24	=24	=24	=24	=24
0r	0r	0F	0r	2.a	2.ff
.	.	.	.	4g	4ee
.	.	.	.	2f	2dd
.	.	.	.	2e	2cc
=25	=25	=25	=25	=25	=25
1r	0r	[0G	1r	2d	2b-y
.	.	.	.	2e	2g
1G	.	.	1d	1g	2.b-y
.	.	.	.	.	4cc
=26	=26	=26	=26	=26	=26
1B-y	2r	0G]	1d	0g	1dd
.	2G	.	.	.	.
1B-y	2G	.	1e	.	1r
.	2G	.	.	.	.
=27	=27	=27	=27	=27	=27
2.A	2.c	0r	2.f	0r	0r
4G	4B-y	.	4e	.	.
2F	2A	.	2d	.	.
2E	2G	.	2c	.	.
=28	=28	=28	=28	=28	=28
2D	2A	0r	2f	0r	2r
2BB-y	2B-y	.	2d	.	2b-y
1E-i	2.G	.	1g	.	2b-y
.	.	.	.	.	2cc
.	8FL	.	.	.	.
.	8EJ	.	.	.	.
=29	=29	=29	=29	=29	=29
1BB-y	0D	[0B-y	1f	0r	2.dd
.	.	.	.	.	4cc
[1BB-y	.	.	[1d	.	2b-y
.	.	.	.	.	2a
=30	=30	=30	=30	=30	=30
2BB-]	1r	0B-]	2d]	0r	2g
2BB-y	.	.	2d	.	2f
1BB-y	[1F	.	2d	.	[1b-y
.	.	.	[2f	.	.
=31	=31	=31	=31	=31	=31
0r	2F]	0c	2f]	1.f	2b-]
.	2F	.	4e	.	4a
.	.	.	4d	.	4g
.	[1F	.	1c	.	1a
.	.	.	.	2f	.
=32	=32	=32	=32	=32	=32
1BB-y	1F]	0B-y	1d	2.f	1b-y
.	.	.	.	4e	.
2BB-y	1r	.	2r	4d	2r
.	.	.	.	4c	.
2BB-y	.	.	2F	4d	[2f
.	.	.	.	4e	.
=33	=33	=33	=33	=33	=33
1D	0r	0A	2F	1f	4f]
.	.	.	.	.	4g
.	.	.	2F	.	4a
.	.	.	.	.	4b-y
1C	.	.	1A	1e	1cc
=34	=34	=34	=34	=34	=34
0BB-y	1r	0B-y	1G	2r	0dd
.	.	.	.	2d	.
.	2r	.	1F	2d	.
.	2F	.	.	2d	.
=35	=35	=35	=35	=35	=35
0r	2F	0c	1A	1f	2r
.	2F	.	.	.	2a
.	1A	.	2c	2.e	2a
.	.	.	2c	.	2a
.	.	.	.	4f	.
=36	=36	=36	=36	=36	=36
2r	1G	0B-y	2.d	2g	2.b-y
2BB-y	.	.	.	2.d	.
.	.	.	4e	.	4cc
2BB-y	2F	.	1f	.	[1dd
.	.	.	.	4e	.
2BB-y	2F	.	.	[2f	.
=37	=37	=37	=37	=37	=37
2.D	2F	0A	2d	4f]	1dd]
.	.	.	.	4g	.
.	2F	.	2.f	1a	.
4E	.	.	.	.	.
1F	2.A	.	.	.	2.cc
.	.	.	4e	.	.
.	.	.	[2c	4g	.
.	4B-y	.	.	4f	4dd
=38	=38	=38	=38	=38	=38
0C	1c	0G	4c]	0e	4ee
.	.	.	4d	.	4ff
.	.	.	4e	.	2ee
.	.	.	4f	.	.
.	1c	.	2g	.	2cc
.	.	.	[2c	.	[2ee
=39	=39	=39	=39	=39	=39
1r	0r	0G	2c]	1g	4ee]
.	.	.	.	.	4dd
.	.	.	2B-y	.	1dd
1C	.	.	1e-i	2r	.
.	.	.	.	[2g	2cc
=40	=40	=40	=40	=40	=40
1BB-y	0r	0B-y	1d	2g]	1dd
.	.	.	.	2f	.
1E-i	.	.	1G	1g	1r
=41	=41	=41	=41	=41	=41
2D	2r	1B-y	1d	2f	0r
2BB-y	1G	.	.	2d	.
2C	.	1A	1r	2e	.
2D	2F	.	.	2f	.
=42	=42	=42	=42	=42	=42
1E-i	2.B-y	1G	0r	1g	0r
.	4G	.	.	.	.
1D	1A	1F	.	2r	.
.	.	.	.	[2d	.
=43	=43	=43	=43	=43	=43
2.G	1G	[0B-y	0r	2d]	2r
.	.	.	.	2B-y	1g
4F	.	.	.	.	.
4G	1r	.	.	2e-i	.
4A	.	.	.	.	.
[2B-y	.	.	.	[2d	2f
=44	=44	=44	=44	=44	=44
2B-]	0r	1B-]	1G	2d]	1b-y
4A	.	.	.	4c	.
4G	.	.	.	4B-y	.
1F	.	1c	1A	[1f	[1a
=45	=45	=45	=45	=45	=45
1r	1D	2.d	2F	1f]	1a]
.	.	.	2.f	.	.
.	.	4c	.	.	.
1BB-y	2.F	4d	.	1r	1r
.	.	4e	4e	.	.
.	.	2f	2d	.	.
.	4G	.	.	.	.
=46	=46	=46	=46	=46	=46
2C	4A	2e	2c	0r	0r
.	4F	.	.	.	.
2D	1B-y	1d	2F	.	.
1E-i	.	.	2.G	.	.
.	4A	2c	.	.	.
.	4G	.	4A	.	.
=47	=47	=47	=47	=47	=47
0D	1F	0d	2B-y	2r	2r
.	.	.	2A	2f	2dd
.	1BB-y	.	2.B-y	2f	2dd
.	.	.	.	2f	2dd
.	.	.	4A	.	.
=48	=48	=48	=48	=48	=48
0r	2C	0r	2G	2e	2cc
.	2D	.	2F	2.d	1b-y
.	1E-i	.	1G	.	.
.	.	.	.	4c	.
.	.	.	.	4c	4a
.	.	.	.	8B-yL	4g
.	.	.	.	8cJ	.
=49	=49	=49	=49	=49	=49
1r	1D	1d	1A	1d	0f
2r	1r	1d	1B-y	2r	.
[2B-y	.	.	.	[2f	.
=50	=50	=50	=50	=50	=50
2B-]	0r	1c	1F	2f]	0r
2A	.	.	.	2f	.
2G	.	2B-y	1r	2g	.
2F	.	2A	.	2a	.
=51	=51	=51	=51	=51	=51
1G	0r	1B-y	0r	2.d	2r
.	.	.	.	.	1b-y
.	.	.	.	4e	.
1F	.	1c	.	1f	.
.	.	.	.	.	2a
=52	=52	=52	=52	=52	=52
1BB-y	1r	1B-y	0r	2r	2g
.	.	.	.	2f	2f
1r	2r	1r	.	2e	1g
.	[2B-y	.	.	[2d	.
=53	=53	=53	=53	=53	=53
0r	2B-]	0r	1r	2d]	1f
.	2A	.	.	2c	.
.	2G	.	2r	2.d	1r
.	2F	.	[2f	.	.
.	.	.	.	4c	.
=54	=54	=54	=54	=54	=54
0r	1G	0r	2f]	1B-y	1g
.	.	.	2e	.	.
.	1F	.	2d	1A	1a
.	.	.	2c	.	.
=55	=55	=55	=55	=55	=55
1.G	0r	1B-y	1d	2r	2b-y
.	.	.	.	2G	4g
.	.	.	.	.	4a
.	.	1B-y	2.d	2g	4b-y
.	.	.	.	.	4cc
2G	.	.	.	2g	[2dd
.	.	.	4e	.	.
=56	=56	=56	=56	=56	=56
1F	0r	1A	1f	1a	2dd]
.	.	.	.	.	2cc
1G	.	1B-y	1d	2.g	2.b-y
.	.	.	.	4f	4a
=57	=57	=57	=57	=57	=57
1C	1.G	1c	2r	4e	2.g
.	.	.	.	4d	.
.	.	.	2c	4e	.
.	.	.	.	4f	4a
1r	.	1B-y	2d	1g	4b-y
.	.	.	.	.	4cc
.	2G	.	2e	.	[2dd
=58	=58	=58	=58	=58	=58
0r	1F	1A	1f	1c	2dd]
.	.	.	.	.	1cc
.	1G	1G	1d	[1g	.
.	.	.	.	.	2bnXi
=59	=59	=59	=59	=59	=59
2r	1C	1G	1e	1g]	1cc
2C	.	.	.	.	.
1D	1r	1r	1d	1f	2b-y
.	.	.	.	.	[2a
=60	=60	=60	=60	=60	=60
1E-X	2r	1c	1G	1g	4a]
.	.	.	.	.	4g
.	2C	.	.	.	1g
1D	1D	2B-y	1d	1r	.
.	.	[2A	.	.	2f
=61	=61	=61	=61	=61	=61
2r	1E	4A]	2r	1G	2g
.	.	4G	.	.	.
2C	.	1G	2e	.	2cc
1D	1D	.	2f	1d	2b-y
.	.	2F#i	[2d	.	[2a
=62	=62	=62	=62	=62	=62
1E-i	0r	1G	2d]	2B-y	4a]
.	.	.	.	.	4g
.	.	.	2c	2c	1g
1D	.	1A	[1d	1A	.
.	.	.	.	.	2f#i
=63	=63	=63	=63	=63	=63
1GG	1r	[0Gl	1d]	1B-y	[0gl
2r	1C	.	1e	2.c	.
[2C	.	.	.	.	.
.	.	.	.	4B-y	.
=64	=64	=64	=64	=64	=64
2C]	1D	0G_	1d	2G	0g_
2BB-y	.	.	.	2.d	.
1C	1E	.	1r	.	.
.	.	.	.	4c	.
.	.	.	.	[2c	.
=65	=65	=65	=65	=65	=65
[0GGl	[0Dl	0G_	0d	2c]	0g_
.	.	.	.	4BnXi	.
.	.	.	.	4A	.
.	.	.	.	[1BnXl	.
=66	=66	=66	=66	=66	=66
00GG]	00D]	00G]	00d	00B]	00g]
=67||	=67||	=67||	=67||	=67||	=67||
*M2/1	*M2/1	*M2/1	*M2/1	*M2/1	*M2/1
*met(C|)	*met(C|)	*met(C|)	*met(C|)	*met(C|)	*met(C|)
!!section: Secunda pars: Disperge illos
!!!OMD: Secunda pars: Disperge illos
1G	0r	0r	0r	0r	0r
2G	.	.	.	.	.
2A	.	.	.	.	.
=68	=68	=68	=68	=68	=68
1B-y	0r	0r	1d	0r	0r
1G	.	.	2d	.	.
.	.	.	2e	.	.
=69	=69	=69	=69	=69	=69
2r	0r	0r	1f	0r	0r
2F	.	.	.	.	.
2G	.	.	1d	.	.
2B-y	.	.	.	.	.
=70	=70	=70	=70	=70	=70
2.A	1r	0r	2r	0r	0r
.	.	.	2c	.	.
4G	.	.	.	.	.
2.F	2r	.	2d	.	.
.	2F	.	2f	.	.
8EL	.	.	.	.	.
8DJ	.	.	.	.	.
=71	=71	=71	=71	=71	=71
2C	2G	0r	2e	0r	0r
1D	2B-y	.	2.f	.	.
.	2A	.	.	.	.
.	.	.	4e	.	.
[2BB-y	[2B-y	.	4d	.	.
.	.	.	4c	.	.
=72	=72	=72	=72	=72	=72
4BB-]	2B-]	0r	1d	1r	0r
4C	.	.	.	.	.
4D	4A	.	.	.	.
4E	4G	.	.	.	.
2F	2A	.	2c	2r	.
2G	2B-y	.	2B-y	2g	.
=73	=73	=73	=73	=73	=73
1C	1c	0r	1e-i	2g	1r
.	.	.	.	2a	.
[1G	1B-y	.	1d	1b-y	1dd
=74	=74	=74	=74	=74	=74
2G]	0r	0r	2.B-y	1g	2dd
4F	.	.	.	.	2ee
4E	.	.	4c	.	.
1D	.	.	1d	2r	1ff
.	.	.	.	2f	.
=75	=75	=75	=75	=75	=75
0r	2r	0r	2G	2g	1dd
.	2G	.	2.g	1b-y	.
.	2G	.	.	.	2r
.	.	.	4f	.	.
.	2A	.	2e	2a	2cc
=76	=76	=76	=76	=76	=76
0r	1B-y	0r	2d	2r	2dd
.	.	.	2.b-y	2f	2ff
.	1G	.	.	2g	2ee
.	.	.	4a	.	.
.	.	.	2g	[2b-y	[2dd
=77	=77	=77	=77	=77	=77
0r	2r	0r	2.f	2b-]	2dd]
.	2F	.	.	2a	2.cc
.	.	.	4e	.	.
.	2G	.	1d	2g	.
.	.	.	.	.	4b-y
.	[2B-y	.	.	2f	2b-y
=78	=78	=78	=78	=78	=78
0r	2B-]	0r	2r	2r	1cc
.	2A	.	2c	2f	.
.	2G	.	2d	2g	1r
.	2F	.	[2f	[2a	.
=79	=79	=79	=79	=79	=79
2r	2.c	0r	2f]	4a]	1r
.	.	.	.	8gL	.
.	.	.	.	8fJ	.
2C	.	.	2e	2g	.
.	4B-y	.	.	.	.
2D	4A	.	2d	2.f	2r
.	4G	.	.	.	.
[2F	[2A	.	2c	.	2cc
.	.	.	.	4e	.
=80	=80	=80	=80	=80	=80
2F]	4A]	0r	0r	2d	2dd
.	4G	.	.	.	.
2E	1c	.	.	2c	2ee
1D	.	.	.	2d	2ff
.	2BnXi	.	.	2f	2dd
=81	=81	=81	=81	=81	=81
1C	1c	0G	2r	4e	2.ee
.	.	.	.	4d	.
.	.	.	2c	4e	.
.	.	.	.	4f	8ddL
.	.	.	.	.	8ccJ
2r	1r	.	2d	1g	2b-y
2C	.	.	2e	.	2cc
=82	=82	=82	=82	=82	=82
2D	0r	0F	1f	2r	0a
2.F	.	.	.	2c	.
.	.	.	1d	2d	.
4E	.	.	.	.	.
2D	.	.	.	2f	.
=83	=83	=83	=83	=83	=83
2C	0r	0G	2e	2e	0r
2BB-y	.	.	2f	2.d	.
1E-i	.	.	1g	.	.
.	.	.	.	4c	.
.	.	.	.	4c	.
.	.	.	.	8B-yL	.
.	.	.	.	8cJ	.
=84	=84	=84	=84	=84	=84
1D	2r	1r	1f	1d	2r
.	1F	.	.	.	2a
[1BB-y	.	[1B-y	1d	2r	1dd
.	2F	.	.	[2f	.
=85	=85	=85	=85	=85	=85
1BB-]	2D	1B-]	1r	2f]	2dd
.	2BB-y	.	.	2g	2dd
2r	1F	1c	1f	2a	1cc
[2F	.	.	.	2a	.
=86	=86	=86	=86	=86	=86
2F]	0BB-y	0B-y	2f	1b-y	0dd
2F	.	.	2d	.	.
2D	.	.	2B-y	2.f	.
2BB-y	.	.	2d	.	.
.	.	.	.	4g	.
=87	=87	=87	=87	=87	=87
1F	2r	1A	1c	1a	2r
.	1F	.	.	.	2cc
[1BB-y	.	[1B-y	1r	2r	2dd
.	2F	.	.	2f	[2ff
=88	=88	=88	=88	=88	=88
1BB-]	2D	1B-]	1f	2b-y	4ff]
.	.	.	.	.	4ee
.	2BB-y	.	.	2b-y	2dd
1r	1F	[1c	2f	1a	4cc
.	.	.	.	.	4b-y
.	.	.	2f	.	4cc
.	.	.	.	.	4dd
=89	=89	=89	=89	=89	=89
2r	1C	0c]	2.e	2.g	2ee
2G	.	.	.	.	1cc
.	.	.	4d	4f	.
2A	1r	.	2c	2e	.
2F	.	.	2f	[2a	2a
=90	=90	=90	=90	=90	=90
1G	2r	1B-y	1.d	4a]	2.b-y
.	.	.	.	4g	.
.	2G	.	.	2g	.
.	.	.	.	.	4cc
1D	2A	1A	.	1f	2dd
.	2F	.	2d	.	2a
=91	=91	=91	=91	=91	=91
2r	1G	1G	1d	2r	2b-y
1G	.	.	.	2.d	2g
.	1D	1A	2r	.	1dd
.	.	.	.	4e	.
2F	.	.	[2d	2f	.
=92	=92	=92	=92	=92	=92
1G	0r	1B-y	2d]	1d	2.b-y
.	.	.	1G	.	.
.	.	.	.	.	4a
2C	.	1c	.	2e	4g
.	.	.	.	.	4f
2F	.	.	2F	2f	[2a
=93	=93	=93	=93	=93	=93
2G	0r	2B-y	2B-y	2d	4a]
.	.	.	.	.	4g
2E	.	2G	2c	2e	1g
1D	.	1A	[1d	4f	.
.	.	.	.	4e	.
.	.	.	.	4d	2f#i
.	.	.	.	4c	.
=94	=94	=94	=94	=94	=94
2GG	0r	[0G	2d]	2B-y	[0g
2C	.	.	2e-i	1c	.
1GG	.	.	1d	.	.
.	.	.	.	2B-y	.
=95	=95	=95	=95	=95	=95
1C	2r	0G_	1c	0e-i	0g_
.	2C	.	.	.	.
1r	2C	.	2r	.	.
.	2C	.	[2c	.	.
=96	=96	=96	=96	=96	=96
1r	1G	0G]	2c]	1d	0g]
.	.	.	2B-y	.	.
1C	1r	.	1e-i	2r	.
.	.	.	.	[2g	.
=97	=97	=97	=97	=97	=97
1BB-y	0r	0B-y	1d	2g]	0r
.	.	.	.	2f	.
1E-i	.	.	1G	1g	.
=98	=98	=98	=98	=98	=98
2D	2r	1B-y	1d	2f	0r
2BB-y	1G	.	.	2d	.
2C	.	1A	1r	2e	.
2D	2F	.	.	2f	.
=99	=99	=99	=99	=99	=99
1E-i	2.B-y	1G	0r	1g	0r
.	4G	.	.	.	.
1D	1A	1F	.	2r	.
.	.	.	.	[2d	.
=100	=100	=100	=100	=100	=100
2.G	1G	[0B-y	0r	2d]	2r
.	.	.	.	2B-y	1g
4F	.	.	.	.	.
4G	1r	.	.	2e-i	.
4A	.	.	.	.	.
[2B-y	.	.	.	[2d	2f
=101	=101	=101	=101	=101	=101
2B-]	0r	1B-]	1G	2d]	1b-y
4A	.	.	.	4c	.
4G	.	.	.	4B-y	.
1F	.	1c	1A	[1f	[1a
=102	=102	=102	=102	=102	=102
1r	1D	2.d	2F	1f]	1a]
.	.	.	2.f	.	.
.	.	4c	.	.	.
1BB-y	2.F	4d	.	1r	1r
.	.	4e	4e	.	.
.	.	2f	2d	.	.
.	4G	.	.	.	.
=103	=103	=103	=103	=103	=103
2C	4A	2e	2c	0r	0r
.	4F	.	.	.	.
2D	1B-y	1d	2F	.	.
1E-i	.	.	2.G	.	.
.	4A	2c	.	.	.
.	4G	.	4A	.	.
=104	=104	=104	=104	=104	=104
0D	1F	0d	2B-y	2r	2r
.	.	.	2A	2f	2dd
.	1BB-y	.	2.B-y	2f	2dd
.	.	.	.	2f	2dd
.	.	.	4A	.	.
=105	=105	=105	=105	=105	=105
0r	2C	0r	2G	2e	2cc
.	2D	.	2F	2.d	1b-y
.	1E-i	.	1G	.	.
.	.	.	.	4c	.
.	.	.	.	4c	4a
.	.	.	.	8B-yL	4g
.	.	.	.	8cJ	.
=106	=106	=106	=106	=106	=106
1r	1D	1d	1A	1d	0f
2r	1r	1d	1B-y	2r	.
[2B-y	.	.	.	[2f	.
=107	=107	=107	=107	=107	=107
2B-]	0r	1c	1F	2f]	0r
2A	.	.	.	2f	.
2G	.	2B-y	1r	2g	.
2F	.	2A	.	2a	.
=108	=108	=108	=108	=108	=108
1G	0r	1B-y	0r	2.d	2r
.	.	.	.	.	1b-y
.	.	.	.	4e	.
1F	.	1c	.	1f	.
.	.	.	.	.	2a
=109	=109	=109	=109	=109	=109
1BB-y	1r	1B-y	0r	2r	2g
.	.	.	.	2f	2f
1r	2r	1r	.	2e	1g
.	[2B-y	.	.	[2d	.
=110	=110	=110	=110	=110	=110
0r	2B-]	0r	1r	2d]	1f
.	2A	.	.	2c	.
.	2G	.	2r	2.d	1r
.	2F	.	[2f	.	.
.	.	.	.	4c	.
=111	=111	=111	=111	=111	=111
0r	1G	0r	2f]	1B-y	1g
.	.	.	2e	.	.
.	1F	.	2d	1A	1a
.	.	.	2c	.	.
=112	=112	=112	=112	=112	=112
1.G	0r	1B-y	[1d	2r	2b-y
.	.	.	.	2G	4g
.	.	.	.	.	4a
.	.	1B-y	2.d]	2g	4b-y
.	.	.	.	.	4cc
2G	.	.	.	2g	[2dd
.	.	.	4e	.	.
=113	=113	=113	=113	=113	=113
1F	0r	1A	1f	1a	2dd]
.	.	.	.	.	2cc
1G	.	1B-y	1d	2.g	2.b-y
.	.	.	.	4f	4a
=114	=114	=114	=114	=114	=114
1C	1.G	1c	2r	4e	2.g
.	.	.	.	4d	.
.	.	.	2c	4e	.
.	.	.	.	4f	4a
1r	.	1B-y	2d	1g	4b-y
.	.	.	.	.	4cc
.	2G	.	2e	.	[2dd
=115	=115	=115	=115	=115	=115
0r	1F	1A	1f	1c	2dd]
.	.	.	.	.	1cc
.	1G	1G	1d	[1g	.
.	.	.	.	.	2bnXi
=116	=116	=116	=116	=116	=116
2r	1C	1G	1e	1g]	1cc
2C	.	.	.	.	.
1D	1r	1r	1d	1f	2b-y
.	.	.	.	.	[2a
=117	=117	=117	=117	=117	=117
1E-X	2r	1c	1G	1g	4a]
.	.	.	.	.	4g
.	2C	.	.	.	1g
1D	1D	2B-y	1d	1r	.
.	.	[2A	.	.	2f#i
=118	=118	=118	=118	=118	=118
2r	1E-X	4A]	2r	1G	2g
.	.	4G	.	.	.
2C	.	1G	2e	.	2cc
1D	1D	.	2f	1d	2b-y
.	.	2F#i	[2d	.	[2a
=119	=119	=119	=119	=119	=119
1E-i	0r	1G	2d]	2B-y	4a]
.	.	.	.	.	4g
.	.	.	2c	2c	1g
1D	.	1A	[1d	1A	.
.	.	.	.	.	2f#i
=120	=120	=120	=120	=120	=120
1GG	1r	[0Gl	1d]	1B-y	[0gl
2r	1C	.	1e	2.c	.
[2C	.	.	.	.	.
.	.	.	.	4B-y	.
=121	=121	=121	=121	=121	=121
2C]	1D	0G_	1d	2G	0g_
2BB-y	.	.	.	2.d	.
1C	1E-i	.	1r	.	.
.	.	.	.	4c	.
.	.	.	.	[2c	.
=122	=122	=122	=122	=122	=122
[0GGl	[0Dl	0G_	0d	2c]	0g_
.	.	.	.	4BnXi	.
.	.	.	.	4A	.
.	.	.	.	[1BnXl	.
=123	=123	=123	=123	=123	=123
00GG]	00D]	00G]	00dl	00B]	00g]
==	==	==	==	==	==
*-	*-	*-	*-	*-	*-
!!!system-decoration: [*]
!!!RDF**kern: i = editorial accidental
!!!RDF**kern: l = terminal long
!!!ENC: Benjamin Ory
!!!END: 2024/3/9
!!!EED: Benjamin Ory
!!!EEV: 2024/3/9
!!!YEC: Copyright 2024 Benjamin Ory, All Rights Reserved
!!!ONB: Translated from MusicXML on 2024/03/09
